X: 1
T: Ale Is Dear, The
M: 4/4
L: 1/8
R: reel
K: Bmin
|:f2ef B2fe | faea cA Ae |f2 ef B2 fe | fa ec B2 Bc :|
|:BB Bc d2 cB | AA AB AB cA |BB Bc d2 cB | ff ec B2 B2 :|
